X:250
T: Pat Ward's
T: Highlander's Kneebuckle
T: B\'ucla Gl\'uine an H\'ileant\'ora
S: B.Breathnach: "Ceol Rince na hEireann" II/57
Z: B.Black
L: 1/8
M: 12/8
Q: 375
R: slide
K: D
A2G|FED A2D B2D A2D|F2A A2G EEE E2G|
FED A2D B2D A2z|Bcd e2c d2B A2G|
FED A2D B2D A2D|DDD A2G EEE E2G|
FED A2D B2D A2D|1 Bcd e2c d3 :|2\
AB/c/d e2c d3-d2||
A|A2d f2d e2d f2d|A2d f2d ege d2A|
A2d f2d e2e e2f|gfe f2d B3 AzA|
A2d f2d e2d f2d|A2d f2d eze e2f|
gfe fed fed cBA|Bcd e2c d3 d2 :|

